X:1
T:The King Is Coming!
T:The King Is Coming!
T:Ira David Sankey
T:Ira David Sankey, 1888
T:Public Domain Courtesy of the Cyber Hymnal™
C:Ira David Sankey
Z:Public Domain
Z:Courtesy of the Cyber Hymnal™
%%score ( 1 2 ) ( 3 4 )
L:1/8
Q:1/4=113
M:4/4
K:Ab
V:1 treble 
V:2 treble 
V:3 bass 
V:4 bass 
V:1
 [CE]2 |S [CE]2 [Ec]2 [EB]2 [EA]2 | [EG]2 [DF]2 [DF][FA][EG][DF] | [CE]2 [CE]2 [CA]2 (GA) | %4
w: 1.~Re-|joice! Re- oice! our|king is com- ing! And the|time will not be *|
w: 2.~With|joy we wait our|king’s re- turn- ing From His|heav’n- ly man- sions *|
w: 3.~Oh,|may we ne- ver|wear- y, watch- ing, Ne- ver|lay our ar- mor *|
 [EB]6 (AB) | [Ec]2 [Fd]2 [Ec]2 [=EG]2 | [FB]2 [FA]2 [DF][FA][EG][DF] | [CE]2 [EA]2 [DA]2 [DG]2 | %8
w: long, Un- *|til we hail the|ra- diant dawn- ing, And lift|up the glad new|
w: fair; And *|with ten thou- sand|saints ap- pear- ing We shall|meet Him in the|
w: down Un- *|til He come, and|with re- joic- ing Give to|each the pro- mised|
 [CA]6!fine! ||"^Refrain" ([EG][FA]) | [GB]2 [FB]2 [EB]2 [AB]2 | [GB]2 [Ge]2 [Ge][GB][EG][EB] | %12
w: song.||||
w: air.|Oh, *|won- drous day! oh,|glor- ious morn- ing, When the|
w: crown.||||
 [=DB]2 [DA]2 [DF]2 [Dc]2 | ([Ec]4 [EB]2) ([EG][FA]) | [GB]2 [FB]2 [EB]2 [AB]2 | %15
w: |||
w: Son of Man shall|come! * May *|we with lamps all|
w: |||
 [GB]2 [Ge]2 [Ge][GB][EG][EB] | [=DB]2 [DA]2 [DG]2 [DF]2 | E6 [DE]2!D.S.! |] %18
w: |||
w: trimmed and burn- ing Glad- ly|wel- come His re-|turn! Re\-|
w: |||
V:2
 x2 | x8 | x8 | x6 =D2 | x6 F2 | x8 | x8 | x8 | x6 || x2 | x8 | x8 | x8 | x8 | x8 | x8 | x8 | %17
 E6 x2 |] %18
V:3
 [A,,A,]2 | [A,,A,]2 [A,,A,]2 [B,,G,]2 [C,A,]2 | [D,A,]2 [D,A,]2 [D,A,][D,A,][D,A,][F,A,] | %3
w: ~|joice! Re- joice! Our|king is com- ing! And the|
 A,2 A,2 [F,A,]2 (B,A,) | [E,G,]6 ([C,A,][E,G,]) | A,2 A,2 [A,,A,]2 [C,B,]2 | %6
w: time will not be *|long, Un- *|til we hail the|
 [D,A,]2 [D,A,]2 [D,A,][D,A,][D,A,][D,A,] | [E,A,]2 [E,C]2 [E,B,]2 [E,B,]2 | [A,,A,]6 || [E,B,]2 | %10
w: ra- diant dawn- ing, And lift|up the glad new|song.||
 [E,E]2 [A,B,]2 [G,B,]2 [F,B,]2 | [E,B,]2 [E,B,]2 [E,B,][E,E][E,B,][E,G,] | %12
w: ||
 [B,,F,]2 [B,,B,]2 [B,,A,]2 [B,,A,]2 | ([E,A,]4 [E,G,]2) [E,B,]2 | [E,E]2 [A,B,]2 [G,B,]2 [F,B,]2 | %15
w: |||
 [E,B,]2 [E,B,]2 [E,B,][E,E][E,B,][E,G,] | [B,,F,]2 [B,,C]2 [B,,B,]2 [B,,A,]2 | %17
w: ||
 ([E,G,]2 [D,B,]2 [C,A,]2 [B,,G,]2) |] %18
w: |
V:4
 x2 | x8 | x8 | A,2 A,2 B,,2 x2 | x8 | A,2 A,2 x4 | x8 | x8 | x6 || x2 | x8 | x8 | x8 | x8 | x8 | %15
 x8 | x8 | x8 |] %18

